ui/StatusQ/src/assets/img/icons/gifCategories/favorite.svg

<svg fill="none" height="19" viewBox="0 0 20 19" width="20" xmlns="http://www.w3.org/2000/svg"><path clip-rule="evenodd" d="m12.7773 6.37542-2.3156-5.567436c-.1708-.410646-.75255-.410645-.92335.000001l-2.31563 5.567435-6.0105.48185c-.443331.03555-.623094.5888-.285326.87813l4.579376 3.9227-1.39908 5.8653c-.10319.4326.36744.7745.74699.5427l5.14582-3.1431 5.1458 3.1431c.3796.2318.8502-.1101.747-.5427l-1.399-5.8653 4.5793-3.9227c.3378-.28933.158-.84258-.2853-.87813zm3.0375 2.17595c.1689-.14466.079-.42129-.1426-.43906l-3.0148-.24169c-.5607-.04495-1.0491-.39981-1.2651-.91916l-1.1615-2.79252c-.0854-.20532-.37622-.20532-.46162 0l-1.16148 2.79252c-.21601.51935-.70442.87421-1.26511.91916l-3.01476.24169c-.22166.01777-.31154.2944-.14266.43906l2.29693 1.96753c.42719.366.61374.9401.48323 1.4873l-.70175 2.9419c-.0516.2163.18372.3872.37349.2713l2.58106-1.5765c.48002-.2932 1.08377-.2932 1.56377 0l2.581 1.5765c.1898.1159.4251-.055.3735-.2713l-.7017-2.9419c-.1305-.5472.056-1.1213.4832-1.4873z" fill="#939ba1" fill-rule="evenodd"/></svg>

<svg width="20" height="19" viewBox="0 0 20 19" fill="none" xmlns="http://www.w3.org/2000/svg">
<path fill-rule="evenodd" clip-rule="evenodd" d="M12.7773 6.37542L10.4617 0.807984C10.2909 0.397338 9.70915 0.397339 9.53835 0.807985L7.22272 6.37542L1.21222 6.85727C0.768889 6.89282 0.589126 7.44607 0.926894 7.7354L5.50627 11.6581L4.10719 17.5234C4.004 17.956 4.47463 18.2979 4.85418 18.0661L10 14.923L15.1458 18.0661C15.5254 18.2979 15.996 17.956 15.8928 17.5234L14.4938 11.6581L19.0731 7.7354C19.4109 7.44607 19.2311 6.89282 18.7878 6.85727L12.7773 6.37542ZM15.8148 8.55137C15.9837 8.40671 15.8938 8.13008 15.6722 8.11231L12.6574 7.87062C12.0967 7.82567 11.6083 7.47081 11.3923 6.95146L10.2308 4.15894C10.1454 3.95362 9.85458 3.95362 9.76918 4.15894L8.6077 6.95146C8.39169 7.47081 7.90328 7.82567 7.34259 7.87062L4.32783 8.11231C4.10617 8.13008 4.01629 8.40671 4.18517 8.55137L6.4821 10.5189C6.90929 10.8849 7.09584 11.459 6.96533 12.0062L6.26358 14.9481C6.21198 15.1644 6.4473 15.3353 6.63707 15.2194L9.21813 13.6429C9.69815 13.3497 10.3019 13.3497 10.7819 13.6429L13.3629 15.2194C13.5527 15.3353 13.788 15.1644 13.7364 14.9481L13.0347 12.0062C12.9042 11.459 13.0907 10.8849 13.5179 10.5189L15.8148 8.55137Z" fill="#939BA1"/>
</svg>
